images/pig-scheme/grudinka.svg

<svg width="174" height="62" viewBox="0 0 174 62" fill="none" xmlns="http://www.w3.org/2000/svg">
<path d="M173.08 0C173.07 0.39 173.05 0.770004 173.03 1.16C172.88 3.41 172.46 5.70001 171.82 8.01001C166.91 25.68 149.11 44.44 143.09 56.1C142.1 58.01 141.44 59.73 141.19 61.22C140.14 61.2 139.08 61.18 138.03 61.16C131.67 61.05 125.32 60.93 119.04 60.79C117.19 60.76 115.34 60.72 113.51 60.68C107.11 60.54 100.78 60.39 94.59 60.24C92.75 60.19 90.92 60.15 89.1 60.09C82.64 59.93 76.35 59.75 70.27 59.56C68.43 59.5 66.61 59.44 64.81 59.38C58.28 59.16 52.03 58.93 46.15 58.68C44.31 58.61 42.5 58.53 40.74 58.45C34.02 58.15 27.85 57.82 22.35 57.48C20.51 57.36 18.75 57.25 17.06 57.13C11.4 56.72 6.63999 56.29 2.95999 55.83C1.93999 55.7 1.08 55.09 0.589996 54.24C0.359996 53.83 0.219987 53.37 0.189987 52.88C0.109987 51.67 0.049989 50.48 0.019989 49.29V49.17C-1.09859e-05 48.21 0 47.25 0 46.29V46.26C0.02 43.09 0.199988 39.9 0.549988 36.68C0.869988 33.94 1.19999 31.15 1.53999 28.3V28.29C1.78999 26.18 2.04999 24.04 2.31999 21.87C2.40999 21.12 2.5 20.37 2.59 19.62L3.53 11.68V11.67C3.71 10.22 3.88 8.77 4.06 7.31C4.26 5.62 5.75999 4.38 7.45999 4.5L8.81 4.60001C11.83 4.83001 15.19 5.08 18.85 5.34C20.54 5.46 22.3 5.58002 24.12 5.71002C29.69 6.08002 35.82 6.46001 42.4 6.79001C44.16 6.89001 45.95 6.97 47.77 7.06C53.72 7.32 59.99 7.55001 66.49 7.70001C68.31 7.75001 70.16 7.78 72.02 7.81C75.88 7.88 79.81 7.91 83.8 7.91C86.29 7.91 88.8 7.90002 91.33 7.86002C93.23 7.85002 95.14 7.82002 97.06 7.77002C103.69 7.64002 110.42 7.40002 117.17 7.02002C119.18 6.90002 121.19 6.78 123.2 6.63C130.34 6.15 137.48 5.50002 144.54 4.65002C146.7 4.40002 148.85 4.12002 151 3.83002C158.51 2.80002 165.91 1.54 173.08 0Z" fill="#C21921"/>
<path fill-rule="evenodd" clip-rule="evenodd" d="M24.12 5.71011L1.54004 28.2901C1.79004 26.1801 2.05004 24.0401 2.32004 21.8701L18.85 5.34009C20.54 5.46009 22.3 5.58011 24.12 5.71011Z" fill="#9E1B1E"/>
<path fill-rule="evenodd" clip-rule="evenodd" d="M47.77 7.06003L0.590027 54.2401C0.360027 53.8301 0.220018 53.3701 0.190018 52.8801C0.110018 51.6701 0.0500195 50.48 0.0200195 49.29V49.17L42.4 6.79004C44.16 6.89004 45.95 6.97003 47.77 7.06003Z" fill="#9E1B1E"/>
<path fill-rule="evenodd" clip-rule="evenodd" d="M72.0201 7.81006L22.3501 57.4801C20.5101 57.3601 18.7501 57.2501 17.0601 57.1301L66.4901 7.70007C68.3101 7.75007 70.16 7.78006 72.0201 7.81006Z" fill="#9E1B1E"/>
<path fill-rule="evenodd" clip-rule="evenodd" d="M97.06 7.77002L46.15 58.68C44.31 58.61 42.5 58.53 40.74 58.45L91.33 7.86002C93.23 7.85002 95.14 7.82002 97.06 7.77002Z" fill="#9E1B1E"/>
<path fill-rule="evenodd" clip-rule="evenodd" d="M123.2 6.63L70.2701 59.56C68.43 59.5 66.6101 59.44 64.8101 59.38L117.17 7.02002C119.18 6.90002 121.19 6.78 123.2 6.63Z" fill="#9E1B1E"/>
<path fill-rule="evenodd" clip-rule="evenodd" d="M151 3.83008L94.5901 60.2401C92.7501 60.1901 90.9201 60.1501 89.1001 60.0901L144.54 4.65009C146.7 4.40009 148.85 4.12008 151 3.83008Z" fill="#9E1B1E"/>
<path fill-rule="evenodd" clip-rule="evenodd" d="M173.03 1.16003C172.88 3.41003 172.46 5.70004 171.82 8.01004L119.04 60.79C117.19 60.76 115.34 60.7201 113.51 60.6801L173.03 1.16003Z" fill="#9E1B1E"/>
<path fill-rule="evenodd" clip-rule="evenodd" d="M143.09 56.1001C142.1 58.0101 141.44 59.7301 141.19 61.2201C140.14 61.2001 139.08 61.1801 138.03 61.1601L143.09 56.1001Z" fill="#9E1B1E"/>
</svg>

<svg width="174" height="62" fill="none" xmlns="http://www.w3.org/2000/svg"><path d="M173.08 0c-.01.39-.03.77-.05 1.16-.15 2.25-.57 4.54-1.21 6.85-4.91 17.67-22.71 36.43-28.73 48.09-.99 1.91-1.65 3.63-1.9 5.12l-3.16-.06c-6.36-.11-12.71-.23-18.99-.37-1.85-.03-3.7-.07-5.53-.11-6.4-.14-12.73-.29-18.92-.44-1.84-.05-3.67-.09-5.49-.15-6.46-.16-12.75-.34-18.83-.53l-5.46-.18c-6.53-.22-12.78-.45-18.66-.7-1.84-.07-3.65-.15-5.41-.23-6.72-.3-12.89-.63-18.39-.97-1.84-.12-3.6-.23-5.29-.35-5.66-.41-10.42-.84-14.1-1.3a3.207 3.207 0 01-2.37-1.59c-.23-.41-.37-.87-.4-1.36-.08-1.21-.14-2.4-.17-3.59v-.12C0 48.21 0 47.25 0 46.29v-.03c.02-3.17.2-6.36.55-9.58.32-2.74.65-5.53.99-8.38v-.01c.25-2.11.51-4.25.78-6.42l.27-2.25.94-7.94v-.01c.18-1.45.35-2.9.53-4.36a3.2 3.2 0 013.4-2.81l1.35.1c3.02.23 6.38.48 10.04.74 1.69.12 3.45.24 5.27.37 5.57.37 11.7.75 18.28 1.08 1.76.1 3.55.18 5.37.27 5.95.26 12.22.49 18.72.64 1.82.05 3.67.08 5.53.11 3.86.07 7.79.1 11.78.1 2.49 0 5-.01 7.53-.05 1.9-.01 3.81-.04 5.73-.09 6.63-.13 13.36-.37 20.11-.75 2.01-.12 4.02-.24 6.03-.39 7.14-.48 14.28-1.13 21.34-1.98 2.16-.25 4.31-.53 6.46-.82 7.51-1.03 14.91-2.29 22.08-3.83z" fill="#C21921"/><path fill-rule="evenodd" clip-rule="evenodd" d="M24.12 5.71L1.54 28.29c.25-2.11.51-4.25.78-6.42L18.85 5.34c1.69.12 3.45.24 5.27.37zm23.65 1.35L.59 54.24c-.23-.41-.37-.87-.4-1.36-.08-1.21-.14-2.4-.17-3.59v-.12L42.4 6.79c1.76.1 3.55.18 5.37.27zm24.25.75L22.35 57.48c-1.84-.12-3.6-.23-5.29-.35L66.49 7.7c1.82.05 3.67.08 5.53.11zm25.04-.04L46.15 58.68c-1.84-.07-3.65-.15-5.41-.23L91.33 7.86c1.9-.01 3.81-.04 5.73-.09zm26.14-1.14L70.27 59.56l-5.46-.18 52.36-52.36c2.01-.12 4.02-.24 6.03-.39zm27.8-2.8L94.59 60.24c-1.84-.05-3.67-.09-5.49-.15l55.44-55.44c2.16-.25 4.31-.53 6.46-.82zm22.03-2.67c-.15 2.25-.57 4.54-1.21 6.85l-52.78 52.78c-1.85-.03-3.7-.07-5.53-.11l59.52-59.52zM143.09 56.1c-.99 1.91-1.65 3.63-1.9 5.12l-3.16-.06 5.06-5.06z" fill="#9E1B1E"/></svg>
